src/img/Union5.svg

<svg width="52.000000" height="46.146484" viewBox="0 0 52 46.1465" fill="none" xmlns="http://www.w3.org/2000/svg" xmlns:xlink="http://www.w3.org/1999/xlink">
	<desc>
			Created with Pixso.
	</desc>
	<defs/>
	<path id="Union" d="M22.3667 2.09766C23.9814 -0.699219 28.0186 -0.699219 29.6333 2.09766L51.4316 39.8535C53.0464 42.6504 51.0278 46.1465 47.7988 46.1465L4.20117 46.1465C0.972168 46.1465 -1.04639 42.6504 0.568359 39.8535L22.3667 2.09766ZM28.1797 2.93652L49.9785 40.6924C50.9473 42.3711 49.7363 44.4688 47.7988 44.4688L4.20117 44.4688C2.26367 44.4688 1.05273 42.3711 2.02148 40.6934L23.8203 2.93652C24.7891 1.25879 27.2109 1.25879 28.1797 2.93652ZM25.1611 32.0117L25.1611 15.2314L26.8389 15.2314L26.8389 32.0117L25.1611 32.0117ZM26 37.0459C26.4634 37.0459 26.8389 36.6709 26.8389 36.207C26.8389 35.7441 26.4634 35.3682 26 35.3682C25.5366 35.3682 25.1611 35.7441 25.1611 36.207C25.1611 36.6709 25.5366 37.0459 26 37.0459Z" fill="#FFFFFF" fill-opacity="1.000000" fill-rule="evenodd"/>
</svg>

<svg width="52" height="46.146" viewBox="0 0 52 46.147" fill="none" xmlns="http://www.w3.org/2000/svg"><path d="M22.367 2.098c1.614-2.797 5.652-2.797 7.266 0l21.799 37.755c1.614 2.797-.404 6.294-3.633 6.294H4.2c-3.229 0-5.247-3.497-3.633-6.294L22.367 2.098Zm5.813.839 21.798 37.755c.97 1.68-.242 3.777-2.18 3.777H4.202c-1.937 0-3.148-2.098-2.18-3.776l21.8-37.756c.968-1.678 3.39-1.678 4.359 0ZM25.16 32.012v-16.78h1.678v16.78H25.16ZM26 37.046a.838.838 0 1 0 0-1.677.838.838 0 0 0 0 1.677Z" fill="#FFF" fill-rule="evenodd"/></svg>
